X:2
T:Miss Gaston’s Hornpipe. RDO.02
T:Miss Gayton’s Hornpipe,aka. RDO.02
M:4/4
L:1/8
Q:1/2=80
S:Robert D. Owen MS,Indiana,1826.
R:.Hornpipe
O:Indiana,USA
A:New Harmony
Z:vmp.Chris Partington
K:G
d>c|B>dg>fg2d>c|B>dg>fg2d>c|Bbag fed^c|dfag fedc|!
Bdgfg2|d>c|Bdgfg2g>f|efge fgab|g2g2g2:|!
g>a|babga2f2|gfged2B2|cdec BcdB|AGABA2g>a|!
babga2f2|gfged2g>f|efge fgab|g2b2g2:|

